uiw/folder-add.svg

<svg xmlns="http://www.w3.org/2000/svg" viewBox="0 0 20 20" height="1em" width="1em">
  <path fill="#555" d="M15.5110019,9.40874527 C15.887818,9.40874527 16.1932877,9.70802501 16.1932877,10.0772053 L16.193,13.041 L19.2249999,13.0415461 C19.6025707,13.0415461 19.9086522,13.3402276 19.9086522,13.70867 C19.9086522,14.0771123 19.6025707,14.3757939 19.2249999,14.3757939 L16.193,14.375 L16.1932877,17.3401347 C16.1932877,17.709315 15.887818,18.0085947 15.5110019,18.0085947 C15.1341859,18.0085947 14.8287162,17.709315 14.8287162,17.3401347 L14.828,14.375 L11.7970039,14.3757939 C11.4194332,14.3757939 11.1133517,14.0771123 11.1133517,13.70867 C11.1133517,13.3402276 11.4194332,13.0415461 11.7970039,13.0415461 L14.828,13.041 L14.8287162,10.0772053 C14.8287162,9.70802501 15.1341859,9.40874527 15.5110019,9.40874527 Z M1.41650275,2 L7.5327149,2.00155403 C7.9638461,2.03032018 8.31608539,2.14222025 8.58006501,2.37264052 C8.80563903,2.56953763 8.97215702,2.8336355 9.09763253,3.17830062 L9.47793206,4.34720702 C9.49167255,4.38944045 9.50088063,4.43201941 9.50582176,4.47444387 L19.3163477,4.47423658 C19.6939184,4.47423658 20,4.77291812 20,5.14136046 L20,8.72099334 C20,9.08943569 19.6939184,9.38811723 19.3163477,9.38811723 C18.938777,9.38811723 18.6326954,9.08943569 18.6326954,8.72099334 L18.6326954,5.80848435 L1.36729975,5.80848435 L1.36722509,16.1755989 C1.37051113,16.3858924 1.36904802,16.4794799 1.41650275,16.5491108 C1.45446653,16.6048155 1.48403455,16.6159564 1.56655442,16.6181846 L10.5238151,16.6187417 C10.9013858,16.6187417 11.2074674,16.9174232 11.2074674,17.2858655 C11.2074674,17.6543079 10.9013858,17.9529894 10.5238151,17.9529894 L1.57671928,17.9529894 L1.45998709,17.9431925 C0.924378516,17.8526195 0.519362812,17.6522768 0.283469092,17.2887716 C0.0936014889,16.9961914 0.00688536371,16.6314917 0,16.1857702 L0,5.137 L0.0034482218,3.31521139 C0.0390363089,2.96025413 0.158336481,2.65558388 0.378891904,2.4199532 C0.62337074,2.15876391 0.964133609,2.02910246 1.41650275,2 Z M1.46395747,3.33263865 C1.38041709,3.33831097 1.37310707,3.35684304 1.36750414,3.3801709 L1.367,4.474 L8.084,4.474 L7.80207798,3.60419595 C7.75579987,3.4775259 7.71759344,3.40539124 7.66848893,3.36709542 C7.61938441,3.3287996 7.59434188,3.34302902 7.48607865,3.33424777 L1.46395747,3.33263865 Z"/>
</svg>

<svg xmlns="http://www.w3.org/2000/svg" viewBox="0 0 20 20" height="1em" width="1em">
  <path fill="#555" d="M15.511 9.409c.377 0 .682.299.682.668v2.964h3.032c.378 0 .684.3.684.668a.676.676 0 0 1-.684.667l-3.032-.001v2.965c0 .37-.305.669-.682.669a.675.675 0 0 1-.682-.669l-.001-2.965h-3.031a.676.676 0 0 1-.684-.666c0-.369.306-.667.684-.667l3.031-.001v-2.964c0-.369.306-.668.683-.668ZM1.417 2l6.116.002c.43.028.783.14 1.047.37.226.198.392.462.518.806l.38 1.17a.656.656 0 0 1 .028.126h9.81c.378 0 .684.299.684.667v3.58a.676.676 0 0 1-.684.667.676.676 0 0 1-.683-.667V5.808H1.367v10.368c.004.21.002.303.05.373.037.056.067.067.15.07h8.957c.377 0 .683.298.683.667a.676.676 0 0 1-.683.667H1.577l-.117-.01c-.536-.09-.94-.29-1.177-.654-.19-.293-.276-.658-.283-1.103V5.137l.003-1.822c.036-.355.155-.66.376-.895.244-.261.585-.39 1.038-.42Zm.047 1.333c-.084.005-.09.024-.096.047l-.001 1.094h6.717l-.282-.87c-.046-.126-.084-.199-.134-.237-.049-.038-.074-.024-.182-.033l-6.022-.001Z"/>
</svg>
